!!!!SEGMENT: pl-wn--mus-iii-123-982--001-006_wieniawski-henryk--l-ecole-moderne-etudes-caprices-pour-violon-seul-op-10-6-prelude.krn
!!!cenid: 18xx:3819
!!!COM: Wieniawski, Henryk
!!!COM-rismID: pe137176
!!!CDT: 1835/07/10-1880/03/31
!!!CNT:
!!!GTL: L'école moderne.Etudes-caprices pour violon seul op. 10
!!!OTL: 6. Prélude
!!!OMV: 006
!!!PDT:
!!!AGN: Secular; Etude
!!!YEC: Copyright 2022 Narodowy Instytut Fryderyka Chopina (https://polishscores.org)
!!!YEM: License CC-BY-4.0 (https://creativecommons.org/licenses/by/4.0)
!!!SMS-siglum: PL-Wn
!!!SMS-shelfmark: Mus.III.123.982
!!!SMS-shelfwork: 001-006 G
!!!SMS-variant:
!!!SMS-altvar:
!!!NIFC-rismSourceID:
!!!NIFC-rismChildID:
!!!NIFC-islandoraID: none
!!!URL-pdf-islandora:
!!!URL-scan: https://polona2.pl/item/l-ecole-moderne-etudes-caprices-pour-violon-seul-op-10,MTE2OTgzMTMy/17 @EN{Scan on Polona} @PL{Skany w portalu Polona}
!!!IIIF: https://polona2.pl/iiif/item/MTE2OTgzMTMy/manifest.json
!!!ONB-nifc:
!!!OMD: Allegro moderato.
!!!AIN: 1 violn
!!!key: b
**kern	**fing	**dynam
*part1	*	*
*staff1	*	*
*I"[Violon seul]	*	*
*mI"Violino Solo	*	*
*Ivioln	*	*
*ICstr	*	*
*IGsolo	*	*
*clefG2	*	*
*k[f#c#]	*	*
*b:	*	*
*M2/2	*	*
*met(c|)	*	*
=1	=1	=1
*xywh-14:463,407,3572,1122	*	*
4r	.	.
4ff#v\	.	.
4ff#\	.	.
4ff#\	.	.
=2	=2	=2
(8gg\L	.	.
8ff#\)	.	.
8ee\	.	.
8dd\J	.	.
8cc#\L	.	.
8b\	.	.
8a#X\	.	.
8g\J	.	.
=3	=3	=3
4f#/	.	.
8a#X\L	.	.
8cc#\J	.	.
4ff#\	.	.
4ee\	.	.
=4	=4	=4
*^	*^	*
4r	4dd\	.	.	.
4dddv/	(>8b\L	4	1	.
.	8cc#\J)	.	1	.
4ddd/	4dd\	.	2	.
4ddd/	4b\	.	1	.
=5	=5	=5	=5	=5
(8eee/L	8gg\	.	.	.
8ddd/)	8r	.	.	.
8ccc#/	4r	.	.	.
8bb/J	.	.	.	.
8aa#X/L	2aa#\	4	1	.
8gg/	.	4	.	.
8ff#/	.	3	.	.
8ee/J	.	2	.	.
*	*	*v	*v	*
=6	=6	=6	=6
4bb/	4dd\	.	.
8ccc#/L	8ff#\L	.	.
8ddd/J	8bb\J	.	.
4fff#/	2ff# 2a#X\	.	.
4eee/	.	.	.
!!LO:LB:g=original
=7	=7	=7	=7
*	*^	*	*
*xywh-14:420,1478,3572,517	*xywh-14:420,1478,3572,517	*xywh-14:420,1478,3572,517	*	*
4ddd 4ff#/	4b\	4rF	.	.
(<8ccc#L 8cc#/	4f#^\	4ryy	.	.
8bbJ 8dd/)	.	.	.	.
2aa#X/	4ff# 4f#\	2ryy	.	.
.	4ee 4f#\	.	.	.
*	*v	*v	*	*
=8	=8	=8	=8
8bb 8dd/	8b\L	.	.
8rgg	8an\	.	.
4rgg	8g\	.	.
.	8f#\J	.	.
8gg 8b/	8e\L	.	.
8ree	8d\	.	.
4ree	8c#\	.	.
.	8B\J	.	.
=9	=9	=9	=9
8ff# 8f#/	4A#X\	.	.
8ree	.	.	.
4ree	(>8c#'>\L	.	.
.	8e'>\J)	.	.
4bb/	4cc# 4g\	.	.
4aa#X/	4cc# 4f#\	.	.
=10	=10	=10	=10
4bb 4dd/	4f# 4B\	.	.
4b/	4b\	.	.
4b/	4b\	.	.
4b/	4b\	.	.
=11	=11	=11	=11
2b/	(8b\L	.	.
.	8an\)	.	.
.	8g\	.	.
.	8f#\J	.	.
(8gg/L	8bL 8e\	.	.
8ff#/)	8b 8f#\	.	.
8ee/	8b 8g\	.	.
8dd/J	8eJ 8G#X\	.	.
=12	=12	=12	=12
*	*^	*	*
4cc# 4e/	4ryy	4A\	.	.
4ree	(>8c#\L	4ryy	.	.
.	8e\J)	.	.	.
4a/	4f#\	4aa/	.	.
(<8b/L	4e\	4gg/	.	.
8cc#/J)	.	.	.	.
!!LO:LB:g=original
=13	=13	=13	=13	=13
*xywh-14:390,1879,3594,532	*xywh-14:390,1879,3594,532	*xywh-14:390,1879,3594,532	*	*
4ff# 4dd/	4ryy	4d\	.	.
4ree	(>8f#\L	4ryy	.	.
.	8a\J)	.	.	.
4ddd 4dd/	4ryy	4b\	.	.
4cccn/	(>8ee\L	4a\	.	.
.	8ff#\J)	.	.	.
*	*v	*v	*	*
=14	=14	=14	=14
4bb 4gg/	4d 4G\	.	.
4b/	(>8G\L	.	.
.	8A\J)	.	.
4b/	4B\	.	.
4b/	4G\	.	.
=15	=15	=15	=15
*	*^	*^	*
8ee/L	2e/	8cn\L	.	.	.
8dd/	.	8G#X\	.	.	.
8ccn/	.	8A\	.	.	.
8b/J	.	8B\J	.	.	.
!	!LO:TX:t=P:problem:mixed beam	!	!	!	!
4.a/	8e/L	2cn\	.	.	.
.	8gn\	.	.	.	.
.	8f#\	.	.	.	.
8a#X/	8e\J	.	1	2	.
*	*v	*v	*	*	*
=16	=16	=16	=16	=16
4b 4d#X/	4B\	1 2	3	.
(8bb'/L	(8dd#X'\L	.	.	.
8ccc#'/J)	8ee'\J)	.	.	.
4ddd#X/	4ff#\	2	1	.
(8ddd#'/L	(8ff#'\L	.	.	.
8eee'/J)	8gg'\J)	.	.	.
*	*	*	*	*
=17	=17	=17	=17	=17
8fff#/L	8aa\L	.	.	.
8ddd#X/	8ff#\	.	.	.
8bb/	8dd#X\	.	.	.
8qdddn/	.	.	.	.
8cccn/J	8ee\J	.	.	.
8bb/L	8dd#\L	.	.	.
8aa/	8b\	.	.	.
8gg/	8cc#X\	2	3	.
8ff#/J	8dd#\J	1	3	.
*	*	*v	*v	*
!!LO:LB:g=original
=18	=18	=18	=18
*	*^	*	*
*xywh-14:463,2339,3558,546	*xywh-14:463,2339,3558,546	*xywh-14:463,2339,3558,546	*	*
8ee/	8ee\	4ryy	.	.
8r	8ryy	.	.	.
(8ee'/L	4b/	(<8g'<\L	.	.
8ff#'/J)	.	8f#'<\J)	.	.
4gg/	4b/	4e\	.	.
4ee/	4b/	4g\	.	.
=19	=19	=19	=19	=19
8aa/	8ccn/L	8f#\	.	.
8r	8b/	8rB	.	.
4r	8a/	4rB	.	.
.	8g/J	.	.	.
8bb/L	8dd#X 8f# 8B\	8ryy	.	.
8aa/	8rf	8ryy	.	.
8gg/	4rf	4ryy	.	.
8ff#/J	.	.	.	.
=20	=20	=20	=20	=20
8gg/	8b 8e\	8ryy	.	.
8r	8ryy	8ryy	.	.
(8gg'>/L	8b/L	4g\	.	.
8aa'>/J)	8ccn/J	.	.	.
4bb/	4dd/	4g\	.	.
4gg/	4b/	4g\	.	.
*	*v	*v	*	*
=21	=21	=21	=21
8cccn 8ccn/	8a\L	.	.
8ree	8g\	.	.
4ree	8f#\	.	.
.	8e\J	.	.
8ddd/L	8ff# 8d\	.	.
8ccc/	8rf	.	.
8bb/	4rf	.	.
8aa/J	.	.	.
=22	=22	=22	=22
*	*^	*	*
8bb 8gg/	4rffyy	8d 8G\	.	.
8rc	.	8rgg	.	.
4ddd/	8dd/L	(<8b'<\L	.	.
.	8ee/J	8cc#X'<\J)	.	.
4ddd/	4ff#\	4dd\	.	.
4ddd/	4ff#\	4b\	.	.
*	*v	*v	*	*
!!LO:LB:g=original
=23	=23	=23	=23
*xywh-14:354,2718,3652,495	*xywh-14:354,2718,3652,495	*	*
8eee/L	8ee 8cc#\	.	.
8ddd/	8r	.	.
8ccc#/	4r	.	.
8bb/J	.	.	.
8aa#X/L	2aa#\	.	.
8gg/	.	.	.
8ff#/	.	.	.
8ee/J	.	.	.
=24	=24	=24	=24
4bb/	4dd\	.	.
(8ccc#/L	(8ff#\L	.	.
8ddd/J)	8bb\J)	.	.
4fff#/	2ff# 2a#X\	.	.
4eee/	.	.	.
=25	=25	=25	=25
*	*^	*	*
4ddd 4ff#/	4b\	4rA	.	.
(8ccc#/L	8cc#\L	4f#\	.	.
8bb/J)	8dd\J	.	.	.
2aa#X/	4ff#\	4f#\	.	.
.	4ee\	4f#\	.	.
*	*v	*v	*	*
=26	=26	=26	=26
8bb 8dd/	8b\L	.	.
8rgg	8a\	.	.
4rgg	8g\	.	.
.	8f#\J	.	.
8gg 8b/	8e\L	.	.
8ree	8d\	.	.
4ree	8c#\	.	.
.	8B\J	.	.
=27	=27	=27	=27
*	*^	*	*
8ff# 8f#/	4ryy	4A#X\	.	.
8rcc	.	.	.	.
4rcc	4ryy	(8c#\L	.	.
.	.	8e\J)	.	.
4bb/	4cc#/	4g\	.	.
4aa#X/	4cc#/	4f#\	.	.
*	*v	*v	*	*
=28	=28	=28	=28
4bb 4dd/	4f# 4B\	.	.
4b/	4b\	.	.
4b/	4b\	.	.
4b/	4b\	.	.
!!LO:LB:g=original
=29	=29	=29	=29
*xywh-14:449,3126,3558,554	*xywh-14:449,3126,3558,554	*	*
2b/	(8b\L	.	.
.	8a\)	.	.
.	8g`\	.	.
.	8f#`\J	.	.
(8gg/L	8bL 8e\	.	.
8ff#/)	8b 8f#\	.	.
8ee/	8b 8g\	.	.
8dd/J	8eJ 8G#X\	.	.
=30	=30	=30	=30
*	*^	*	*
4cc# 4e/	4ryy	4A\	.	.
4ree	4ryy	(8c#\L	.	.
.	.	8e\J)	.	.
4aa 4a/	4ryy	4f#\	.	.
4gg/	(8b/L	4e\	.	.
.	8cc#/J)	.	.	.
=31	=31	=31	=31	=31
4ff# 4dd/	4ryy	4d\	.	.
4rff	4ryy	(8f#\L	.	.
.	.	8a\J)	.	.
4ddd/	4ryy	4dd 4b\	.	.
4cccn/	(>8ee\L	4a\	.	.
.	8ff#\J)	.	.	.
*	*v	*v	*	*
=32	=32	=32	=32
4bb 4gg/	4d 4G\	.	.
4b/	(>8G\L	.	.
.	8A\J)	.	.
4b/	4B\	.	.
4b/	4G\	.	.
=33	=33	=33	=33
*	*^	*^	*
8ee/L	2e/	8cn\L	.	.	.
8dd/	.	8G#X\	.	.	.
8ccn/	.	8A\	.	.	.
8b/J	.	8B\J	.	.	.
!	!LO:TX:t=P:problem:mixed beam	!	!	!	!
4.a/	8e/L	2cn\	.	.	.
.	8gn\	.	.	.	.
.	8f#\	.	.	.	.
8a#X/	8e\J	.	1	2	.
*	*v	*v	*	*	*
*	*	*v	*v	*
=34	=34	=34	=34
4b 4d#X/	4B\	.	.
(8bb'/L	(8dd#X'\L	.	.
8ccc#'/J)	8ee'\J)	.	.
4ddd#X/	4ff#\	.	.
(8ddd#'/L	(8ff#'\L	.	.
8eee'/J)	8gg'\J)	.	.
!!LO:LB:g=original
=35	=35	=35	=35
*xywh-14:398,3520,3616,546	*xywh-14:398,3520,3616,546	*	*
8fff#/L	8aa\L	.	.
8ddd#X/	8ff#\	.	.
8bb/	8dd#X\	.	.
8qdddn/	.	.	.
8cccn/J	8ee\J	.	.
8bb/L	8dd#\L	.	.
8aa/	8b\	.	.
8gg/	8cc#X\	.	.
8ff#/J	8dd#\J	.	.
=36	=36	=36	=36
*	*^	*	*
8ee/	8ee\	4ryy	.	.
8r	8ryy	.	.	.
(8ee'/L	4b/	(<8g'<\L	.	.
8ff#'/J)	.	8f#'<\J)	.	.
4gg/	4b/	4e\	.	.
4ee/	4b/	4g\	.	.
=37	=37	=37	=37	=37
8aa/	8ccn/L	8f#\	.	.
8r	8b/	8rB	.	.
4r	8a/	4rB	.	.
.	8g/J	.	.	.
8bb/L	8dd#X 8f# 8B\	8ryy	.	.
8aa/	8re	8ryy	.	.
8gg/	4re	4ryy	.	.
8ff#/J	.	.	.	.
=38	=38	=38	=38	=38
8gg 8b/	8ryy	8e\	.	.
8r	8ryy	8ryy	.	.
8gg/L	(8b/L	4g\	.	.
8aa/J	8ccn/J)	.	.	.
4bb/	4dd/	4g\	.	.
4gg/	4b/	4g\	.	.
*	*v	*v	*	*
=39	=39	=39	=39
8cccn 8ccn/	8a\L	.	.
8rgg	8g\	.	.
4rgg	8f#\	.	.
.	8e\J	.	.
8ddd/L	8ff# 8d\	.	.
8ccc/	8r	.	.
8bb/	4r	.	.
8aa/J	.	.	.
!!LO:LB:g=original
=40	=40	=40	=40
*	*^	*	*
*xywh-14:442,3972,3616,517	*xywh-14:442,3972,3616,517	*xywh-14:442,3972,3616,517	*	*
8bb 8gg/	4rffyy	8d 8G\	.	.
8rB	.	8rgg	.	.
4ddd/	(>8dd/L	(<8b\L	.	.
.	8ee/J)	8cc#X\J)	.	.
4ddd 4ff#/	4ryy	4dd\	.	.
4ddd 4ff#/	4ryy	4b\	.	.
*	*v	*v	*	*
=41	=41	=41	=41
8eee/L	8ee 8cc#\	.	.
8ddd/	8r	.	.
8ccc#/	4r	.	.
8bb/J	.	.	.
8aa#X/L	2aa#\	.	.
8gg/	.	.	.
8ff#/	.	.	.
8ee/J	.	.	.
=42	=42	=42	=42
4bb/	4dd\	.	.
(8ccc#'/L	(8ff#'\L	.	.
8ddd'/J)	8bb'\J)	.	.
4fff#/	2ff# 2a#X\	.	.
4eee/	.	.	.
=43	=43	=43	=43
*	*^	*	*
4ddd 4ff#/	4b\	4rA	.	.
(8ccc#/L	8cc#\L	4f#\	.	.
8bb/J)	8dd\J	.	.	.
2aa#X/	4ff#\	4f#\	.	.
.	4ee\	4f#\	.	.
=44	=44	=44	=44	=44
!LO:TX:a:i:t=ritenuto:problem:problem:text with extention lines	!	!	!	!
8bb/L	8dd/L	8b\L	.	.
8aa/	8ccn/	8d#X\	.	.
8gg/	8b/	8e\	.	.
8ff#/J	8a/J	8f#\J	.	.
!LO:TX:t=P:problem:mixed beam	!	!	!	!
4.ee/	8b/L	2g\	.	.
.	8ddn\	.	.	.
.	8cc\	.	.	.
8ee#X/	8b\J	.	.	.
*	*v	*v	*	*
=45	=45	=45	=45
2ee#X 2b/	2g\	.	.
8ff# 8a#X/	8f#\	.	.
8r	8ryy	.	.
4r;	4ryy	.	.
*v	*v	*	*
!!LO:LB:g=original
=46||	=46||	=46||
*xywh-14:383,4410,3616,641	*	*
!LO:TX:b:i:t=con grazia.\nmolto legato.	!	!
!LO:TX:a:B:t=Poco più mosso.	!	!
(16bu\LL	.	.
16ff#\	3	.
16ee#X\	.	.
16gg\J	.	.
16ff#\L	.	.
16dd\	3	.
16b\	.	.
16g\JJ	.	.
16f#t</LL	.	.
16e#X/	.	.
16f#/	.	.
16g/J	.	.
16f#/L	.	.
16en/	.	.
16c#/	.	.
16A#X/JJ)	.	.
=47	=47	=47
(16BvT</LL	.	.
!LO:TX:a:i:t=Sul G:problem:problem:text with extention lines	!	!
16A#X/	.	.
16B/	.	.
*	*below	*
16c#/J	1	.
16d/L	.	.
16e/	1	.
16f#/	.	.
16g#X/J	1	.
16a#X/L	.	.
16b/	.	.
16cc#/	.	.
16dd/J	1	.
16ee/L	.	.
16ff#/	1	.
16gg#X/	.	.
16aa#X/JJ	3	.
=48	=48	=48
16bb/)	0 3	.
(16bbu\LL	.	.
16aa#X\	.	.
16cccn\J	.	.
16bb\L	.	.
16ggn\	.	.
16ee\	.	.
16ccn\J	.	.
16bt\L	.	.
16a#X\	.	.
16b\	.	.
16cc\J	.	.
16b\L	.	.
16an\	.	.
16f#\	.	.
16d#X\JJ)	.	.
!!LO:PB:g=original
=49	=49	=49
*xywh-15:156,418,3537,659	*	*
(16e\LL	.	.
16g\	.	.
16b\	.	.
16dd#X\J	.	.
16ee\L	.	.
16ff#\	.	.
16gg\	.	.
16ggg\JJ	.	.
*	*above	*
16eee\LL	4	.
16gg\	3	.
16ee\	1	.
16ccc#X\J	2	.
16aa#X\L	2	.
16cc#X\	1	.
16a#X\	1	.
16ff#\JJ)	2	.
=50	=50	=50
(16b\LL	.	.
16ff#\	3	.
16ee#X\	.	.
16gg\J	.	.
16ff#\L	.	.
16ddn\	3	.
16b\	.	.
16g\JJ	.	.
16f#t</LL	.	.
16e#X/	.	.
16f#/	.	.
16g/J	.	.
16f#/L	.	.
16en/	.	.
16c#/	.	.
16A#X/JJ)	.	.
=51	=51	=51
!LO:TX:a:i:t=Sul G:problem:problem:text with extention lines	!	!
(16BT</LL	.	.
16A#X/	.	.
16B/	.	.
*	*below	*
16c#/J	1	.
16d/L	.	.
16e/	1	.
16f#/	.	.
16g#X/J	1	.
16a#X/L	.	.
16b/	1	.
16cc#/	.	.
16dd/J	1	.
16ee/L	.	.
16ff#/	1	.
16gg#X/	2	.
16aa#X/JJ	3	.
!!LO:LB:g=original
=52	=52	=52
*xywh-15:141,955,3544,558	*	*
16bb/)	0 3	.
(16bb\LL	.	.
16aa#X\	.	.
16cccn\J	.	.
16bb\L	.	.
16ggn\	.	.
16ee\	.	.
16cc#X\JJ	.	.
!LO:TX:a:i:t=Sul A:problem:problem:text with extention lines	!	!
16gg\LL	2	.
16ff#\	1	.
16bb\	4	.
16ff#\J	.	.
!LO:TR:acc=none	!	!
16ggT\L	.	.
16ff#\	.	.
16ee\	4	.
16cc#\JJ	.	.
=53	=53	=53
16b\LL	.	.
16cc#\	.	.
16dd\	3	.
16ff#\J	1	.
16bb\L	4	.
16ccc#\	1	.
16ddd\	.	.
16fff#\JJ)	.	.
*	*above	*
4.bbbov\	4	.
8r	.	.
=54	=54	=54
(16ff#u\LL	.	.
*	*below	*
16ccc#\	3	.
16bb#X\	.	.
16ddd\J	.	.
16ccc#\L	.	.
16aa\	.	.
16ff#\	3	.
16dd\JJ	3	.
16cc#t\LL	.	.
16b#X\	.	.
16cc#\	.	.
16dd\J	.	.
16cc#\L	.	.
16bn\	.	.
16g#X\	.	.
16e#X\JJ)	.	.
!!LO:LB:g=original
=55	=55	=55
*xywh-15:141,1404,3573,529	*	*
(16f#vt\LL	.	.
!LO:TX:a:i:t=Sul D:problem:problem:text with extention lines	!	!
16e#X\	.	.
16f#\	.	.
16g#X\J	1	.
16a\L	.	.
16b\	1	.
16cc#\	.	.
16dd#X\JJ	1	.
16ee#X\LL	.	.
16ff#\	1	.
16gg#X\	.	.
16aa\J	1	.
16bb\L	.	.
16ccc#\	1	.
16ddd#X\	2	.
16eee#X\JJ	3	.
=56	=56	=56
16fff#\)	0 3	.
(16fff#\LL	2	.
16eee#X\	.	.
16gggn\J	.	.
16fff#\L	.	.
16dddn\	4	.
16bb\	.	.
16ggn\)J	2	.
(16ff#t\L	.	.
16ee#X\	.	.
16ff#\	.	.
16gg\J	.	.
16ff#\L	.	.
16een\	.	.
16cc#\	.	.
16a#X\JJ)	.	.
=57	=57	=57
!LO:TX:b:i:t=Sul A & E:problem:problem:text with extention lines	!	!
(8b\L	.	.
16ddd\L)	.	.
(16dddd\JJ	4	.
16bbb\LL)	4	.
(16bb\	1	.
16gg#X\)	1	.
(16ggg#X\J	4	.
16eee#X\L)	4	.
(16ee#X\	1	.
16dd\)	1	.
(16ddd\J	4	.
16ccc#\L)	4	.
(16cc#\	1	.
16b#X\)	1	.
(16bb#X\JJ	4	.
!!LO:LB:g=original
=58	=58	=58
*xywh-15:127,1810,3580,521	*	*
16ccc#\LL)	4	.
((16ccc#\	3	.
16bb#X\	.	.
16ddd\J	.	.
16ccc#\L	.	.
16aa\	.	.
16ff#\	.	.
16dd\JJ)	.	.
(16cc#t\LL	.	.
16b#X\	.	.
16cc#\	.	.
16dd\J	.	.
16cc#\L	.	.
16bn\	.	.
16g#X\	.	.
16e#X\JJ))	.	.
=59	=59	=59
(16f#vt\LL	.	.
!LO:TX:a:i:t=Sul D:problem:problem:text with extention lines	!	!
16e#X\	.	.
16f#\	.	.
*	*above	*
16g#X\J	1	.
16a\L	.	.
16b\	1	.
16cc#\	.	.
16dd#X\J	1	.
16ee#X\L	.	.
16ff#\	1	.
16gg#X\	.	.
16aa\J	1	.
16bb\L	.	.
16ccc#\	1	.
16ddd#X\	2	.
16eee#X\JJ	3	.
=60	=60	=60
*	*below	*
16fff#\)	0 3	.
(16en/LL	.	<
16gn/	.	.
16b/JJ	.	.
16cc#\LL	.	.
16ee\	.	.
16ggn\	.	.
16eee\JJ)	3	[
!LO:TX:t=P:problem:mixed beam	!	!
!LO:TX:t=P:problem:diminuendolike accent	!	!
16dddn^`\LL	2	.
(16e#X/	.	<
16g#X/	.	.
16b/	.	.
16dd/	.	.
16ee#X/	.	.
16gg#X/	2	.
16ddd/JJ)	2	[[
!!LO:LB:g=original
=61	=61	=61
*xywh-15:127,2245,3587,616	*	*
((16ccc#\LL	.	.
16aa#X\	.	.
16ff#\	.	.
16fff#\JJ)	.	.
(16ccc#\LL	.	.
16aa#\	.	.
16ff#\	.	.
16aaa#X\JJ	4	.
16fff#\LL	2	.
16ccc#\	.	.
16aa#\	.	.
16cccc#\JJ	4	.
16aaa#\LL	2	.
16fff#\	.	.
16ccc#\	1	.
16ffff#\JJ))	4	.
=62	=62	=62
!LO:TX:a:t=P:problem:t. 62-63 – pojedyncza belka co cztery szestnastki - nie wyświetla się	!	!
16ffff#`\LL	4	.
(16ffff#\	4	<
16eeee#X\	4	.
16eeeen\J	4	.
16dddd#X\L	4	.
16ddddn\	4	.
!LO:TX:a:i:t=n’alterez pas le mouvement.	!	!
16cccc#X\	4	.
16ccccn\J	4	.
16bbb\L	4	.
16aaa#X\	4	.
16aaan\	4	.
16ggg#X\J	4	.
16gggn\L	4	.
16fff#X\	4	.
16eee#X\	4	.
16eeen\J	4	.
=63	=63	=63
16ddd#X\L	4	.
16dddn\	3	.
16ccc#X\	2	.
16cccn\J	1	.
16bb\L	4	.
16aa#X\	3	.
16aan\	2	.
16gg#X\J	1	.
16ggn\L	2	.
16ff#X\	1	.
16ffn\	1	.
16ee\J	0	.
16dd#X\L	4	.
!	!	!LO:MO:mod=.
16ddn\	3	[
16cc#X\	2	.
!	!	!LO:MO:null:mod=[
16ccn\JJ)	1	.
!!LO:LB:g=original
=64	=64	=64
*xywh-15:199,2723,3522,500	*	*
(16b\LL	.	.
16ff#\	.	.
16ee#X\	.	.
16gg\J	.	.
16ff#\L	.	.
16dd\	.	.
16b\	.	.
16g\JJ	.	.
16f#t</LL	.	.
16e#X/	.	.
16f#/	.	.
16g/J	.	.
16f#/L	.	.
16en/	.	.
16c#/	.	.
16A#X/JJ)	.	.
=65	=65	=65
(16BvT</LL	.	.
!LO:TX:b:i:t=Sul G:problem:problem:text with extention lines	!	!
16A#X/	.	.
16B/	.	.
16c#X/J	1	.
16d/L	.	.
16e/	1	.
16f#/	.	.
16g#X/J	1	.
16a#X/L	.	.
16b/	1	.
16cc#/	.	.
16dd/J	1	.
16ee/L	.	.
16ff#/	1	.
16gg#X/	2	.
16aa#X/JJ	3	.
=66	=66	=66
16bb/)	0 3	.
(16bb\LL	.	.
16aa#X\	.	.
16cccn\J	.	.
16bb\L	.	.
16gg\	.	.
16ee\	.	.
16ccn\JJ	.	.
16bt\LL	.	.
16a#X\	.	.
16b\	.	.
16cc\J	.	.
16b\L	.	.
16an\	.	.
16f#\	.	.
16d#X\JJ)	.	.
!!LO:LB:g=original
=67	=67	=67
*xywh-15:170,3093,3450,558	*	*
(16e\LL	.	.
16g\	.	.
16b\	.	.
16dd#X\J	.	.
16ee\L	.	.
16ff#\	.	.
16gg\	.	.
16ggg\JJ	.	.
16eee\LL	.	.
16gg\	.	.
16ee\	.	.
16ccc#X\J	.	.
16aa#X\L	.	.
16cc#X\	.	.
16a#X\	.	.
16ff#\JJ)	.	.
=68	=68	=68
(16b\LL	.	.
16ff#\	.	.
16ee#X\	.	.
16gg\J	.	.
16ff#\L	.	.
16ddn\	.	.
16b\	.	.
16g\JJ	.	.
16f#t/LL	.	.
16e#X/	.	.
16f#/	.	.
16g/J	.	.
16f#/L	.	.
16en/	.	.
16c#/	.	.
16A#X/JJ)	.	.
=69	=69	=69
!LO:TX:a:i:t=Sul G:problem:problem:text with extention lines	!	!
(16BT</LL	.	.
16A#X/	.	.
16B/	.	.
16c#/J	1	.
16d/L	.	.
16e/	1	.
16f#/	.	.
16g#X/J	1	.
16a#X/L	.	.
16b/	1	.
16cc#/	.	.
16dd/J	1	.
16ee/L	.	.
16ff#/	1	.
16gg#X/	.	.
16aa#X/JJ	3	.
!!LO:LB:g=original
=70	=70	=70
*	*^	*
*xywh-15:127,3491,3479,558	*	*	*
!LO:TX:t=P:problem:fingering with extention lines	!	!	!
16bb/)	3	0 3	.
(16Gnu/LL	.	.	<
16B/	.	.	.
16d/J	.	1	.
16gn/L	.	1	.
16b/	.	1	.
16dd/	.	3	.
16ggn/JJ)	.	4 0	[
!LO:TX:t=P:problem:mixed beam	!	!	!
16bbv\LL	4	0	.
(16e#Xu/	.	.	.
16g/	.	.	.
16b/	.	.	.
16dd/	.	.	.
16ee#X/	.	.	.
16gg/	.	.	.
16ddd/JJ)	.	.	.
*	*v	*v	*
=71	=71	=71
*	*	*^
(16fff#v\LL	.	<	.
*	*above	*	*
16ddd\	2	.	.
16ccc#\	3	.	.
16bb\J	.	.	.
16ddd\L	.	.	.
16bb\	.	.	.
16gg\	2	.	.
16ff#\J	.	.	.
16bb\L	.	.	.
16ff#\	.	.	.
16ee\	.	.	.
16dd\J	.	.	.
!LO:MO:mod=!null:null	!	!	!
!LO:TX:b:t=cre-scen-do:problem:dynamics with extention lines	!	!	!LO:HP:t=cre-scen-do
!	!	!	!LO:MO:mod=.
16ff#\L	4	.	<
16dd\	.	.	.
16cc#\	.	.	.
16b\JJ	.	.	.
=72	=72	=72	=72
16dd/LL	.	.	.
16b/	.	.	.
16g/	.	.	.
16f#/J	.	.	.
*	*below	*	*
16b/L	4	.	.
16f#/	.	.	.
16e/	.	.	.
16d/J	.	.	.
!	!	!LO:MO:mod=.	!
16f#/L	.	[	.
16d/	.	.	.
16c#/	.	.	.
!	!	!LO:MO:null:mod=[	!LO:MO:mod=.
16B/J	.	.	[
16A#X/L)	1	.	.
(16Bu/	2	.	.
16cn/	3	.	.
16c#X/JJ	4	.	.
!!LO:LB:g=original
=73	=73	=73	=73
*xywh-15:134,3905,3457,550	*	*	*
!	!	!LO:HP:a:t=diminuendo.:mod=	!LO:HP:a
!	!	!LO:MO:mod=.	!
16d/LL	0	>	>
16d#X/	1	.	.
16e/	2	.	.
16e#X/J	1	.	.
16f#/L	2	.	.
16gn/	3	.	.
16g#X/	4	.	.
16an/J	0	.	.
16a#X/L	1	.	.
16b/	2	.	.
!LO:TX:b:i:t=ritard.	!	!	!
16ccn/	1	.	.
16cc#X/J	2	.	.
16ddn/L	3	.	.
16dd#X/	4	.	.
16een/	0	.	.
16ee#X/JJ)	1	.	]]
*	*	*v	*v
=74	=74	=74
!LO:TX:a:B:t=Tempo 1.°	!	!
4r	.	.
4ff#v\	.	.
4ff#\	.	.
4ff#\	.	.
=75	=75	=75
(8gg\L	.	.
8ff#\)	.	.
8ee\	.	.
8dd\J	.	.
8cc#\L	.	.
8b\	.	.
8a#X\	.	.
8g\J	.	.
=76	=76	=76
4f#/	.	.
8a#X\L	.	.
8cc#\J	.	.
4ff#\	.	.
4ee\	.	.
=77	=77	=77
*^	*	*
4rccc	4dd\	.	.
4dddv/	(>8b\L	.	.
.	8cc#\J)	.	.
4ddd/	4dd\	.	.
4ddd/	4b\	.	.
!!LO:LB:g=original
=78	=78	=78	=78
*xywh-15:134,4303,3566,717	*xywh-15:134,4303,3566,717	*	*
(8eee/L	8gg\	.	.
8ddd/)	8r	.	.
8ccc#/	4r	.	.
8bb/J	.	.	.
(8aa#X/L	2aa#\	.	.
8gg/)	.	.	.
8ff#/	.	.	.
8ee/J	.	.	.
=79	=79	=79	=79
4bb/	4dd\	.	.
(8ccc#'/L	(8ff#'\L	.	.
8ddd'/J)	8bb'\J)	.	.
4fff#/	2ff# 2a#X\	.	.
4eee/	.	.	.
=80	=80	=80	=80
*	*^	*	*
4ddd 4ff#/	4b\	4rG	.	.
(8ccc#'/L	(>8cc#'>\L	4f#\	.	.
8bb'/J)	8dd'>\J)	.	.	.
2aa#X/	4ff#\	4f#\	.	.
.	4ee\	4f#\	.	.
*	*v	*v	*	*
=81	=81	=81	=81
8bb 8dd/	8b\L	.	.
8rff	8an\	.	.
4rff	8g\	.	.
.	8f#\J	.	.
8gg 8b/	8e\L	.	.
8rff	8d\	.	.
4rff	8c#\	.	.
.	8B\J	.	.
=82	=82	=82	=82
8ff# 8f#/	4A#X\	.	.
8ree	.	.	.
4ree	(>8c#'>\L	.	.
.	8e'>\J)	.	.
4bb 4cc#/	4g\	.	.
4aa#X 4cc#/	4f#\	.	.
*v	*v	*	*
=83	=83	=83
!LO:S:s=1:note:problem:note-level slur	!	!
(2aa#X 2ee 2f# 2B/	.	.
!LO:S:s=1:note:problem:note-level slur	!	!
4qqbb/)	.	.
4bb 4dd#X 4f# 4B/	.	.
4r;	.	.
==	==	==
*-	*-	*-
!!!RDF**kern: > = above
!!!RDF**kern: < = below
!!!filter-modern: sic -sq | shed -e "s/TX(.*):t=P:/tx$1:t=P:/LG" | modori -m
!!!ENC: Marta Opryszak
!!!END: 2022-05-07
!!!EED: Katarzyna Serwa
!!!EEV: 2022-05-19
!!!ENC-modern: Marta Lawrence
!!!END-modern: 2022-07-19
!!!ENC-iiif: Natalia Wrzos
!!!END-iiif: 2022-08-30
